svg/fluentui-system-icons/ic_fluent_clipboard_task_24_regular.svg

<svg width="24" height="24" viewBox="0 0 24 24" fill="none" xmlns="http://www.w3.org/2000/svg">
<path d="M17.0303 11.0303C17.3232 10.7374 17.3232 10.2626 17.0303 9.96967C16.7374 9.67678 16.2626 9.67678 15.9697 9.96967L11 14.9393L9.03033 12.9697C8.73744 12.6768 8.26256 12.6768 7.96967 12.9697C7.67678 13.2626 7.67678 13.7374 7.96967 14.0303L10.4697 16.5303C10.7626 16.8232 11.2374 16.8232 11.5303 16.5303L17.0303 11.0303ZM15.994 4.08449C15.9093 2.91913 14.937 2 13.75 2H10.25C9.09205 2 8.13841 2.87472 8.01379 3.99944L6.25 4C5.00736 4 4 5.00736 4 6.25V19.75C4 20.9926 5.00736 22 6.25 22H17.75C18.9926 22 20 20.9926 20 19.75V6.25C20 5.00736 18.9926 4 17.75 4L15.9862 3.99944C15.9893 4.02764 15.9919 4.05599 15.994 4.08449ZM15.9948 4.09595L16 4.25C16 4.19822 15.9983 4.14685 15.9948 4.09595ZM10.25 6.5H13.75C14.53 6.5 15.2174 6.10307 15.621 5.50016L17.75 5.5C18.1642 5.5 18.5 5.83579 18.5 6.25V19.75C18.5 20.1642 18.1642 20.5 17.75 20.5H6.25C5.83579 20.5 5.5 20.1642 5.5 19.75V6.25C5.5 5.83579 5.83579 5.5 6.25 5.5L8.37902 5.5002C8.78267 6.1031 9.46997 6.5 10.25 6.5ZM10.25 3.5H13.75C14.1642 3.5 14.5 3.83579 14.5 4.25C14.5 4.66421 14.1642 5 13.75 5H10.25C9.83579 5 9.5 4.66421 9.5 4.25C9.5 3.83579 9.83579 3.5 10.25 3.5Z" fill="#212121"/>
</svg>

<svg xmlns="http://www.w3.org/2000/svg" width="24" height="24"><path d="M17.03 11.03a.75.75 0 1 0-1.06-1.06L11 14.94l-1.97-1.97a.75.75 0 0 0-1.06 1.06l2.5 2.5a.75.75 0 0 0 1.06 0l5.5-5.5Zm-1.036-6.946A2.25 2.25 0 0 0 13.75 2h-3.5a2.25 2.25 0 0 0-2.236 2H6.25A2.25 2.25 0 0 0 4 6.25v13.5A2.25 2.25 0 0 0 6.25 22h11.5A2.25 2.25 0 0 0 20 19.75V6.25A2.25 2.25 0 0 0 17.75 4h-1.764l.008.084Zm0 .012L16 4.25c0-.052-.002-.103-.005-.154ZM10.25 6.5h3.5c.78 0 1.467-.397 1.871-1h2.129a.75.75 0 0 1 .75.75v13.5a.75.75 0 0 1-.75.75H6.25a.75.75 0 0 1-.75-.75V6.25a.75.75 0 0 1 .75-.75h2.129c.404.603 1.091 1 1.871 1Zm0-3h3.5a.75.75 0 0 1 0 1.5h-3.5a.75.75 0 0 1 0-1.5Z"/></svg>
